X:1
T:Title
%%score ( 1 2 ) { 3 | 4 }
L:1/8
Q:1/4=105
M:6/8
K:D
V:1 treble nm="Grand Piano, Soprano"
V:2 treble 
V:3 bass nm="Choir Pad, Waterbank, 87.87 D"
V:4 bass 
V:1
 [DF]2 E DE[DF] | [EA]2 [DG] [CG]2 [CE] | DE[DF] [FA]2 [FB] | A2 [CE] [DF]3 | %4
w: By~J.~R.~Higinbotham,~before~1917 * * * *||||
 [CE]2 [DA] [EA]2 [E^G] | [EA]2 [EB] [Ec]2 [Ad] | [Ae]2 [Ac] cd[FB] | [EA]2 [E^G] [EA]3 | %8
w: ||||
 [GA]2 [Gf] [Gf]2 [Ge] | [Fd]2 [Ac] [GB]2 [FA] | AB[EG] [DF]2 [DA] | [DB]2 [DE] [CE]3 | %12
w: ||||
 [FA]2 [Fd] [Gc]2 [Gd] | [Ge]2 [GA] [FA]2 [Gd] | [FA]2 [EB] [CE]2 [DA] | [DF]2 [CE] D3- | D6 |] %17
w: |||||
V:2
 x6 | x6 | x6 | x6 | x6 | x6 | z3 .F3 | x6 | x6 | x6 | .E3 z3 | x6 | x6 | x6 | x6 | x6 | x6 |] %17
V:3
 A,2 G, F,2 A, | C2 B, A,2 G, | F,2 A,[K:treble] D2 D | C2 A, A,3 | A,2 C B,2 B, | C2 B, A,2 A, | %6
 C2 E E2 D | C2 B, C3 | C2[K:bass] A, B,A,C | D2[K:treble] D D2 D | A,2 A,[K:bass] A,2 A, | %11
 G,2 B, A,3 | D2 A, A,2 B, | A,2[K:treble] E D2 B, | D2 D[K:bass] A,2 A, | A,2 G, F,3- | F,6 |] %17
V:4
 D,2 D, D,2 D, | A,,2 A,, A,,2 A,, | D,2 D, D,2 D, | .E,3 D,3 | E,2 E, E,2 E, | A,2 G, z2 F, | %6
 E,2 E, E,2 D, | E,2 E, A,,3 | .A,3 .A,2 A, | D,2 D, D,2 D, | C,2 C, D,2 F, | z2 ^G, z3 | %12
 D,2 D, E,2 D, | C,2 C, D,2 G, | A,2 G, G,2 F, | A,,2 A,, D,3- | D,6 |] %17

